app/assets/images/heroicons/mini/arrow-right-end-on-rectangle.svg

<svg width="20" height="20" viewBox="0 0 20 20" fill="none" xmlns="http://www.w3.org/2000/svg">
<path fill-rule="evenodd" clip-rule="evenodd" d="M17 4.25C17 3.00736 15.9926 2 14.75 2H9.25C8.00736 2 7 3.00736 7 4.25V6.25C7 6.66421 7.33579 7 7.75 7C8.16421 7 8.5 6.66421 8.5 6.25V4.25C8.5 3.83579 8.83579 3.5 9.25 3.5H14.75C15.1642 3.5 15.5 3.83579 15.5 4.25V15.75C15.5 16.1642 15.1642 16.5 14.75 16.5H9.25C8.83579 16.5 8.5 16.1642 8.5 15.75V13.75C8.5 13.3358 8.16421 13 7.75 13C7.33579 13 7 13.3358 7 13.75V15.75C7 16.9926 8.00736 18 9.25 18H14.75C15.9926 18 17 16.9926 17 15.75V4.25Z" fill="#0F172A"/>
<path fill-rule="evenodd" clip-rule="evenodd" d="M1 10C1 9.58579 1.33579 9.25 1.75 9.25H11.2955L10.2483 8.30747C9.94039 8.03038 9.91543 7.55616 10.1925 7.24828C10.4696 6.94039 10.9438 6.91543 11.2517 7.19253L13.7517 9.44253C13.9098 9.58476 14 9.78738 14 10C14 10.2126 13.9098 10.4152 13.7517 10.5575L11.2517 12.8075C10.9438 13.0846 10.4696 13.0596 10.1925 12.7517C9.91543 12.4438 9.94039 11.9696 10.2483 11.6925L11.2955 10.75H1.75C1.33579 10.75 1 10.4142 1 10Z" fill="#0F172A"/>
</svg>

<svg xmlns="http://www.w3.org/2000/svg" viewBox="0 0 20 20" fill="currentColor" aria-hidden="true" data-slot="icon">
  <path fill-rule="evenodd" d="M17 4.25A2.25 2.25 0 0 0 14.75 2h-5.5A2.25 2.25 0 0 0 7 4.25v2a.75.75 0 0 0 1.5 0v-2a.75.75 0 0 1 .75-.75h5.5a.75.75 0 0 1 .75.75v11.5a.75.75 0 0 1-.75.75h-5.5a.75.75 0 0 1-.75-.75v-2a.75.75 0 0 0-1.5 0v2A2.25 2.25 0 0 0 9.25 18h5.5A2.25 2.25 0 0 0 17 15.75V4.25Z" clip-rule="evenodd"/>
  <path fill-rule="evenodd" d="M1 10a.75.75 0 0 1 .75-.75h9.546l-1.048-.943a.75.75 0 1 1 1.004-1.114l2.5 2.25a.75.75 0 0 1 0 1.114l-2.5 2.25a.75.75 0 1 1-1.004-1.114l1.048-.943H1.75A.75.75 0 0 1 1 10Z" clip-rule="evenodd"/>
</svg>
